public/payments/crypto/stellar.svg

<svg width="60" height="51" viewBox="0 0 60 51" fill="none" xmlns="http://www.w3.org/2000/svg">
<g clip-path="url(#clip0_127_15)">
<path d="M60.0752 12.7541V17.9464L57.8866 19.0635C56.2244 19.9142 55.2341 21.6817 55.3748 23.5468C55.4232 24.1946 55.4486 24.85 55.4486 25.5055C55.4455 35.0924 50.0776 43.8676 41.5537 48.2201C33.0299 52.5726 22.7904 51.7669 15.0489 46.1346L19.5432 43.8393L19.7976 43.7042C26.2474 47.3283 34.1308 47.255 40.5124 43.5116C46.8939 39.7682 50.8175 32.9156 50.8221 25.5055C50.8218 24.5879 50.7623 23.6713 50.6439 22.7614L15.6342 40.6388L8.39156 44.3366L-0.0751953 48.6594V43.4543L8.45009 39.1009L12.5931 36.9817L60.0752 12.7541ZM18.44 2.78309C26.9638 -1.57238 37.2052 -0.768608 44.9485 4.86356L44.3301 5.17979L40.1845 7.29652C33.7364 3.68761 25.8636 3.76937 19.4915 7.51142C13.1194 11.2535 9.20038 18.0965 9.19065 25.4978C9.19102 26.4095 9.25053 27.3201 9.36879 28.224L44.3428 10.3721L51.5855 6.67425L60.0752 2.33369V7.54134L51.5117 11.9151L47.3687 14.0292L10.4987 32.8553L8.445 33.9035L6.36076 34.9695L-0.0751953 38.2568V33.0466L2.11084 31.9296C3.77455 31.0801 4.76607 29.3121 4.62517 27.4462C4.57597 26.8018 4.55136 26.1549 4.55136 25.5055C4.55038 15.9172 9.91613 7.13856 18.44 2.78309Z" fill="white"/>
</g>
<defs>
<clipPath id="clip0_127_15">
<rect width="60" height="51" fill="white"/>
</clipPath>
</defs>
</svg>

<svg xmlns="http://www.w3.org/2000/svg" width="60" height="51" fill="none"><g clip-path="url(#a)"><path fill="#fff" d="M60.08 12.75v5.2l-2.2 1.11a4.64 4.64 0 0 0-2.5 4.49 25.5 25.5 0 0 1-13.82 24.67 25.4 25.4 0 0 1-26.51-2.09l4.5-2.3.25-.13a20.8 20.8 0 0 0 20.71-.19 20.89 20.89 0 0 0 10.13-20.75l-35 17.88-7.25 3.7-8.47 4.32v-5.2l8.53-4.36 4.14-2.12 47.49-24.23ZM18.44 2.78a25.4 25.4 0 0 1 26.5 2.08l-.61.32-4.15 2.12a20.8 20.8 0 0 0-20.69.21A20.89 20.89 0 0 0 9.37 28.22l34.97-17.85 7.25-3.7 8.49-4.34v5.21l-8.57 4.38-4.14 2.1L10.5 32.87 8.45 33.9l-2.09 1.07-6.44 3.29v-5.21l2.2-1.12a4.64 4.64 0 0 0 2.5-4.48A25.5 25.5 0 0 1 18.44 2.79Z"/></g><defs><clipPath id="a"><path fill="#fff" d="M0 0h60v51H0z"/></clipPath></defs></svg>
